X: 38750
T: Stripe, The
R: reel
M: 4/4
K: Cmajor
GAcd e2dc|Addc dfed|cG~G2 cdeg|ac'ag e2fe|
dcAd cG~G2|AGEc GEce|d2Ad egge|~a2ge d4|
GA (3Bcd ~e2dc|GAAd dfed|c2GA cdeg|ac'ag e2fe|
dcAd cG~G2|AGEc GEce|d2Ad egge|aege d4||
cd (3efg a2ge|c'2ag edde|cgge a2ge|agea gede|
cdGE ~G2Ac|dega c'aac'|g2ed eAAg|1 a2ge d3e:|2 a2ge d4||

